src/components/00-materials/images-raw/ADS.svg

<svg width="96" height="96" viewBox="0 0 96 96" fill="none" xmlns="http://www.w3.org/2000/svg">
<path d="M28.62 64.46H63.14M30.48 69.77H61.27H30.48Z" stroke="#00008F" stroke-width="2" stroke-linecap="round" stroke-linejoin="round"/>
<path d="M21.99 78.26C26.6789 78.26 30.48 74.4589 30.48 69.77C30.48 65.0811 26.6789 61.28 21.99 61.28C17.3011 61.28 13.5 65.0811 13.5 69.77C13.5 74.4589 17.3011 78.26 21.99 78.26Z" stroke="#00008F" stroke-width="2" stroke-linecap="round" stroke-linejoin="round"/>
<path d="M21.99 72.96C23.7518 72.96 25.18 71.5318 25.18 69.77C25.18 68.0082 23.7518 66.58 21.99 66.58C20.2282 66.58 18.8 68.0082 18.8 69.77C18.8 71.5318 20.2282 72.96 21.99 72.96Z" stroke="#00008F" stroke-width="2" stroke-linecap="round" stroke-linejoin="round"/>
<path d="M69.77 78.26C74.4589 78.26 78.26 74.4589 78.26 69.77C78.26 65.0811 74.4589 61.28 69.77 61.28C65.0811 61.28 61.28 65.0811 61.28 69.77C61.28 74.4589 65.0811 78.26 69.77 78.26Z" stroke="#00008F" stroke-width="2" stroke-linecap="round" stroke-linejoin="round"/>
<path d="M69.77 72.96C71.5318 72.96 72.96 71.5318 72.96 69.77C72.96 68.0082 71.5318 66.58 69.77 66.58C68.0082 66.58 66.58 68.0082 66.58 69.77C66.58 71.5318 68.0082 72.96 69.77 72.96Z" stroke="#00008F" stroke-width="2" stroke-linecap="round" stroke-linejoin="round"/>
<path d="M78.26 69.77H88.35C89.0537 69.7673 89.7278 69.4859 90.2244 68.9874C90.7211 68.4888 91 67.8137 91 67.11C91 66.4072 90.7208 65.7331 90.2238 65.2362C89.7269 64.7392 89.0528 64.46 88.35 64.46H76.35M13.49 69.77H7.65C6.94626 69.7673 6.27224 69.4859 5.77556 68.9874C5.27887 68.4888 5 67.8137 5 67.11C5 66.4072 5.2792 65.7331 5.77617 65.2362C6.27314 64.7392 6.94718 64.46 7.65 64.46H15.36M88.88 64.46V50.65L83.19 32.16C82.3788 29.5208 80.7423 27.2116 78.521 25.5717C76.2998 23.9319 73.611 23.048 70.85 23.05H57V64.46" stroke="#00008F" stroke-width="2" stroke-linecap="round" stroke-linejoin="round"/>
<path d="M7.12 64.46V23.05C7.12 21.6417 7.67944 20.2911 8.67526 19.2953C9.67108 18.2994 11.0217 17.74 12.43 17.74H51.72C53.1239 17.7453 54.4684 18.3074 55.4583 19.3029C56.4482 20.2985 57.0027 21.6461 57 23.05M88.88 52.78H85.69C85.269 52.78 84.8522 52.8635 84.4637 53.0258C84.0753 53.1881 83.723 53.4259 83.4271 53.7255C83.1313 54.025 82.8979 54.3803 82.7405 54.7708C82.583 55.1612 82.5047 55.579 82.51 56C82.5087 56.4184 82.59 56.833 82.7492 57.22C82.9084 57.607 83.1424 57.9587 83.4379 58.2551C83.7333 58.5514 84.0843 58.7865 84.4707 58.947C84.8572 59.1074 85.2715 59.19 85.69 59.19H88.88M86.59 45.35H69.59C68.2391 45.3473 66.9445 44.8089 65.9902 43.8527C65.0359 42.8966 64.5 41.6009 64.5 40.25V31.54C64.5 31.2616 64.5548 30.9859 64.6614 30.7287C64.7679 30.4715 64.9241 30.2378 65.1209 30.0409C65.3178 29.8441 65.5515 29.6879 65.8087 29.5814C66.0659 29.4748 66.3416 29.42 66.62 29.42H82L86.59 45.35Z" stroke="#00008F" stroke-width="2" stroke-linecap="round" stroke-linejoin="round"/>
<path d="M11.89 48.62V33.25H17.18C17.9796 33.2455 18.7774 33.3259 19.56 33.49C20.2518 33.6366 20.9077 33.9187 21.49 34.32C22.05 34.7099 22.501 35.2366 22.8 35.85C23.1406 36.5853 23.305 37.39 23.28 38.2C23.2986 39.003 23.1345 39.7997 22.8 40.53C22.498 41.1691 22.0492 41.7276 21.49 42.16C20.9194 42.5928 20.271 42.9119 19.58 43.1C18.8287 43.3126 18.0508 43.417 17.27 43.41H15.36V48.62H11.89ZM15.36 40.62H17.06C18.94 40.62 19.89 39.8 19.89 38.17C19.9229 37.8449 19.87 37.5169 19.7367 37.2187C19.6033 36.9204 19.3942 36.6623 19.13 36.47C18.4786 36.1155 17.7401 35.9525 17 36H15.4L15.36 40.62ZM32 48.9C31.1548 48.9551 30.3076 48.8263 29.5169 48.5224C28.7263 48.2186 28.0109 47.7469 27.42 47.14C26.37 45.95 25.84 44.08 25.84 41.5V33.25H29.33V41.85C29.2239 42.9439 29.4578 44.044 30 45C30.2333 45.3033 30.538 45.5442 30.887 45.7012C31.2359 45.8583 31.6183 45.9265 32 45.9C32.3809 45.9197 32.761 45.8483 33.1088 45.6918C33.4566 45.5353 33.7621 45.2981 34 45C34.5638 44.0478 34.8123 42.9418 34.71 41.84V33.24H38.06V41.5C38.06 44.08 37.54 45.95 36.51 47.14C35.9339 47.7469 35.2311 48.2194 34.4515 48.5236C33.672 48.8278 32.8349 48.9563 32 48.9ZM41.63 48.62V33.25H46.89C47.6369 33.2425 48.3829 33.2994 49.12 33.42C49.7495 33.5214 50.3557 33.7348 50.91 34.05C51.405 34.3334 51.8184 34.7398 52.11 35.23C52.4214 35.7919 52.5735 36.428 52.55 37.07C52.5464 37.4086 52.4959 37.7452 52.4 38.07C52.3174 38.4214 52.1826 38.7585 52 39.07C51.8332 39.3653 51.6244 39.6348 51.38 39.87C51.1439 40.1059 50.8564 40.2839 50.54 40.39V40.49C50.9225 40.579 51.2898 40.7239 51.63 40.92C51.9572 41.1192 52.2509 41.369 52.5 41.66C52.7583 41.9716 52.9582 42.3273 53.09 42.71C53.4397 43.8375 53.3504 45.0555 52.84 46.12C52.5346 46.6814 52.0991 47.1615 51.57 47.52C50.9911 47.9074 50.3476 48.1885 49.67 48.35C48.904 48.5354 48.1181 48.6261 47.33 48.62H41.63ZM45.09 39.4H46.72C47.3763 39.4561 48.0314 39.2791 48.57 38.9C48.7609 38.7387 48.9123 38.5359 49.0129 38.3071C49.1134 38.0784 49.1603 37.8297 49.15 37.58C49.1718 37.3351 49.1288 37.0889 49.0252 36.8659C48.9216 36.643 48.7612 36.4512 48.56 36.31C48.0027 36.0205 47.3767 35.8891 46.75 35.93H45.09V39.4ZM45.09 45.93H47.09C48.99 45.93 49.95 45.24 49.95 43.86C49.9741 43.5767 49.9207 43.2921 49.7957 43.0367C49.6706 42.7814 49.4786 42.5647 49.24 42.41C48.5604 42.0782 47.8036 41.9365 47.05 42H45.05L45.09 45.93Z" fill="#00008F"/>
</svg>

<svg width="96" height="96" viewBox="0 0 96 96" fill="none" xmlns="http://www.w3.org/2000/svg"><path d="M28.62 64.46h34.52m-32.66 5.31h30.79-30.79zM21.99 78.26a8.49 8.49 0 100-16.98 8.49 8.49 0 000 16.98z" stroke="#00008F" stroke-width="2" stroke-linecap="round" stroke-linejoin="round"/><path d="M21.99 72.96a3.19 3.19 0 100-6.38 3.19 3.19 0 000 6.38zM69.77 78.26a8.49 8.49 0 100-16.98 8.49 8.49 0 000 16.98z" stroke="#00008F" stroke-width="2" stroke-linecap="round" stroke-linejoin="round"/><path d="M69.77 72.96a3.19 3.19 0 100-6.38 3.19 3.19 0 000 6.38zM78.26 69.77h10.09A2.66 2.66 0 0091 67.11a2.65 2.65 0 00-2.65-2.65h-12m-62.86 5.31H7.65A2.66 2.66 0 015 67.11a2.65 2.65 0 012.65-2.65h7.71m73.52 0V50.65l-5.69-18.49a12.9 12.9 0 00-12.34-9.11H57v41.41" stroke="#00008F" stroke-width="2" stroke-linecap="round" stroke-linejoin="round"/><path d="M7.12 64.46V23.05a5.31 5.31 0 015.31-5.31h39.29A5.3 5.3 0 0157 23.05m31.88 29.73h-3.19A3.181 3.181 0 0082.51 56a3.18 3.18 0 003.18 3.19h3.19m-2.29-13.84h-17a5.1 5.1 0 01-5.09-5.1v-8.71a2.119 2.119 0 012.12-2.12H82l4.59 15.93z" stroke="#00008F" stroke-width="2" stroke-linecap="round" stroke-linejoin="round"/><path d="M11.89 48.62V33.25h5.29c.8-.005 1.597.076 2.38.24a5.359 5.359 0 011.93.83 4 4 0 011.31 1.53c.34.735.505 1.54.48 2.35a5.3 5.3 0 01-.48 2.33 4.48 4.48 0 01-1.31 1.63 5.59 5.59 0 01-1.91.94 8.214 8.214 0 01-2.31.31h-1.91v5.21h-3.47zm3.47-8h1.7c1.88 0 2.83-.82 2.83-2.45a1.87 1.87 0 00-.76-1.7A3.93 3.93 0 0017 36h-1.6l-.04 4.62zM32 48.9a5.86 5.86 0 01-4.58-1.76c-1.05-1.19-1.58-3.06-1.58-5.64v-8.25h3.49v8.6A5.34 5.34 0 0030 45a2.32 2.32 0 002 .9 2.4 2.4 0 002-.9 5.25 5.25 0 00.71-3.16v-8.6h3.35v8.26c0 2.58-.52 4.45-1.55 5.64A5.69 5.69 0 0132 48.9zm9.63-.28V33.25h5.26c.747-.008 1.493.05 2.23.17.63.101 1.236.315 1.79.63.495.283.908.69 1.2 1.18a3.53 3.53 0 01.44 1.84 3.67 3.67 0 01-.15 1 3.612 3.612 0 01-.4 1 3.497 3.497 0 01-.62.8 2.16 2.16 0 01-.84.52v.1c.383.089.75.234 1.09.43.327.2.62.449.87.74.258.312.458.667.59 1.05a4.68 4.68 0 01-.25 3.41 4 4 0 01-1.27 1.4 5.859 5.859 0 01-1.9.83 9.63 9.63 0 01-2.34.27h-5.7zm3.46-9.22h1.63a2.8 2.8 0 001.85-.5 1.64 1.64 0 00.58-1.32 1.4 1.4 0 00-.59-1.27 3.44 3.44 0 00-1.81-.38h-1.66v3.47zm0 6.53h2c1.9 0 2.86-.69 2.86-2.07a1.57 1.57 0 00-.71-1.45 4.19 4.19 0 00-2.19-.41h-2l.04 3.93z" fill="#00008F"/></svg>
